img/message.svg

<svg width="40" height="40" viewBox="0 0 40 40" fill="none" xmlns="http://www.w3.org/2000/svg">
<g id="vuesax/bold/message">
<g id="message">
<path id="Vector" d="M28.3335 3.3335H11.6668C7.06683 3.3335 3.3335 7.05016 3.3335 11.6335V21.6002V23.2668C3.3335 27.8502 7.06683 31.5668 11.6668 31.5668H14.1668C14.6168 31.5668 15.2168 31.8668 15.5002 32.2335L18.0002 35.5502C19.1002 37.0168 20.9002 37.0168 22.0002 35.5502L24.5002 32.2335C24.8168 31.8168 25.3168 31.5668 25.8335 31.5668H28.3335C32.9335 31.5668 36.6668 27.8502 36.6668 23.2668V11.6335C36.6668 7.05016 32.9335 3.3335 28.3335 3.3335ZM13.3335 20.0002C12.4002 20.0002 11.6668 19.2502 11.6668 18.3335C11.6668 17.4168 12.4168 16.6668 13.3335 16.6668C14.2502 16.6668 15.0002 17.4168 15.0002 18.3335C15.0002 19.2502 14.2668 20.0002 13.3335 20.0002ZM20.0002 20.0002C19.0668 20.0002 18.3335 19.2502 18.3335 18.3335C18.3335 17.4168 19.0835 16.6668 20.0002 16.6668C20.9168 16.6668 21.6668 17.4168 21.6668 18.3335C21.6668 19.2502 20.9335 20.0002 20.0002 20.0002ZM26.6668 20.0002C25.7335 20.0002 25.0002 19.2502 25.0002 18.3335C25.0002 17.4168 25.7502 16.6668 26.6668 16.6668C27.5835 16.6668 28.3335 17.4168 28.3335 18.3335C28.3335 19.2502 27.6002 20.0002 26.6668 20.0002Z" fill="#081C3D"/>
</g>
</g>
</svg>

<svg xmlns="http://www.w3.org/2000/svg" width="40" height="40" fill="none"><path fill="#081C3D" d="M28.334 3.334H11.667c-4.6 0-8.333 3.716-8.333 8.3v11.633c0 4.583 3.733 8.3 8.333 8.3h2.5c.45 0 1.05.3 1.333.666L18 35.55c1.1 1.467 2.9 1.467 4 0l2.5-3.316a1.69 1.69 0 0 1 1.334-.667h2.5c4.6 0 8.333-3.717 8.333-8.3V11.634c0-4.584-3.733-8.3-8.333-8.3M13.334 20a1.66 1.66 0 0 1-1.667-1.666c0-.917.75-1.667 1.667-1.667.916 0 1.666.75 1.666 1.666A1.66 1.66 0 0 1 13.334 20M20 20a1.66 1.66 0 0 1-1.666-1.666c0-.917.75-1.667 1.666-1.667.917 0 1.667.75 1.667 1.666A1.66 1.66 0 0 1 20 20m6.667 0A1.66 1.66 0 0 1 25 18.334c0-.917.75-1.667 1.667-1.667.916 0 1.666.75 1.666 1.666A1.66 1.66 0 0 1 26.668 20"/></svg>
